assets/icons/24px/outline/shopping-cart-full-24px.svg

<svg width="24" height="24" viewBox="0 0 24 24" fill="none" xmlns="http://www.w3.org/2000/svg">
<g clip-path="url(#clip0_821_19295)">
<path d="M19.5 17H9.19456C8.38525 17 7.9806 17 7.70084 16.763C7.42107 16.5259 7.35462 16.1268 7.22171 15.3285L5.77829 6.65855C5.64538 5.86024 5.57893 5.46108 5.29916 5.22404C5.0194 4.98701 4.61475 4.98701 3.80544 4.98701H3M5.85715 7L17.1648 6.99315C18.8691 6.99212 19.7213 6.99161 20.2672 7.42346C20.4995 7.60723 20.6881 7.8403 20.8194 8.10585C21.1278 8.72987 20.9495 9.56315 20.5928 11.2297V11.2297C20.3503 12.3629 20.2291 12.9295 19.8837 13.3217C19.7346 13.4911 19.5579 13.634 19.3611 13.7444C18.9053 14 18.3259 14 17.167 14H7.00054" stroke="white" stroke-width="2" stroke-linecap="round" stroke-linejoin="round"/>
<path d="M20 20.5C20 21.3284 19.3284 22 18.5 22C17.6716 22 17 21.3284 17 20.5C17 19.6716 17.6716 19 18.5 19C19.3284 19 20 19.6716 20 20.5Z" fill="white"/>
<path d="M10.5 20.5C10.5 21.3284 9.82843 22 9 22C8.17157 22 7.5 21.3284 7.5 20.5C7.5 19.6716 8.17157 19 9 19C9.82843 19 10.5 19.6716 10.5 20.5Z" fill="white"/>
</g>
<path d="M13 3C10.303 3 8.49663 3.2969 7.80976 5.0346C7.52252 5.76129 7.3789 6.12464 7.67653 6.56232C7.97416 7 8.48278 7 9.5 7H16.5C17.5172 7 18.0258 7 18.3235 6.56232C18.6211 6.12464 18.4775 5.76129 18.1902 5.0346C17.5034 3.2969 15.697 3 13 3Z" stroke="white" stroke-width="2" stroke-linecap="round" stroke-linejoin="round"/>
<defs>
<clipPath id="clip0_821_19295">
<rect width="24" height="24" fill="white"/>
</clipPath>
</defs>
</svg>

<svg width="24" height="24" fill="none" xmlns="http://www.w3.org/2000/svg"><g clip-path="url(#clip0_821_19295)"><path d="M19.5 17H9.195c-.81 0-1.214 0-1.494-.237s-.346-.636-.48-1.435l-1.443-8.67c-.133-.798-.2-1.197-.479-1.434-.28-.237-.684-.237-1.494-.237H3M5.857 7l11.308-.007c1.704 0 2.556-.001 3.102.43a2 2 0 0 1 .552.683c.309.624.13 1.457-.226 3.124-.243 1.133-.364 1.7-.71 2.092a2 2 0 0 1-.522.422c-.456.256-1.035.256-2.194.256H7.001" stroke="#fff" stroke-width="2" stroke-linecap="round" stroke-linejoin="round"/><path d="M20 20.5a1.5 1.5 0 1 1-3 0 1.5 1.5 0 0 1 3 0zm-9.5 0a1.5 1.5 0 1 1-3 0 1.5 1.5 0 0 1 3 0z" fill="#fff"/></g><path d="M13 3c-2.697 0-4.503.297-5.19 2.035-.287.726-.431 1.09-.133 1.527C7.974 7 8.483 7 9.5 7h7c1.017 0 1.526 0 1.823-.438.298-.437.154-.8-.133-1.527C17.503 3.297 15.697 3 13 3z" stroke="#fff" stroke-width="2" stroke-linecap="round" stroke-linejoin="round"/><defs><clipPath id="clip0_821_19295"><path fill="#fff" d="M0 0H24V24H0z"/></clipPath></defs></svg>
